build/img/icons/time.svg

<svg xmlns="http://www.w3.org/2000/svg" width="48" height="54" viewBox="0 0 48 54" fill="none"> <g filter="url(#filter0_d)"> <path d="M27.5 8.57895H20.5C20.0359 8.57895 19.5907 8.39041 19.2626 8.05482C18.9344 7.71923 18.75 7.26407 18.75 6.78947C18.75 6.31488 18.9344 5.85972 19.2626 5.52412C19.5907 5.18853 20.0359 5 20.5 5H27.5C27.9641 5 28.4092 5.18853 28.7374 5.52412C29.0656 5.85972 29.25 6.31488 29.25 6.78947C29.25 7.26407 29.0656 7.71923 28.7374 8.05482C28.4092 8.39041 27.9641 8.57895 27.5 8.57895Z" fill="#FFD600"/> <path d="M24 10.3684C21.2311 10.3684 18.5243 11.208 16.222 12.7811C13.9197 14.3541 12.1253 16.5899 11.0657 19.2058C10.0061 21.8217 9.72882 24.7001 10.269 27.4771C10.8092 30.2541 12.1426 32.8049 14.1005 34.807C16.0584 36.8091 18.553 38.1725 21.2687 38.7249C23.9845 39.2773 26.7994 38.9938 29.3576 37.9103C31.9157 36.8267 34.1022 34.9918 35.6406 32.6376C37.1789 30.2834 38 27.5156 38 24.6842C38 20.8874 36.525 17.2461 33.8995 14.5614C31.274 11.8767 27.713 10.3684 24 10.3684ZM25.75 24.6842C25.75 25.1588 25.5656 25.614 25.2374 25.9496C24.9093 26.2851 24.4641 26.4737 24 26.4737C23.5359 26.4737 23.0908 26.2851 22.7626 25.9496C22.4344 25.614 22.25 25.1588 22.25 24.6842V19.3158C22.25 18.8412 22.4344 18.386 22.7626 18.0504C23.0908 17.7148 23.5359 17.5263 24 17.5263C24.4641 17.5263 24.9093 17.7148 25.2374 18.0504C25.5656 18.386 25.75 18.8412 25.75 19.3158V24.6842Z" fill="#FFD600"/> </g> <defs> <filter id="filter0_d" x="0" y="0" width="48" height="54" filterUnits="userSpaceOnUse" color-interpolation-filters="sRGB"> <feFlood flood-opacity="0" result="BackgroundImageFix"/> <feColorMatrix in="SourceAlpha" type="matrix" values="0 0 0 0 0 0 0 0 0 0 0 0 0 0 0 0 0 0 127 0"/> <feOffset dy="5"/> <feGaussianBlur stdDeviation="5"/> <feColorMatrix type="matrix" values="0 0 0 0 1 0 0 0 0 0.839216 0 0 0 0 0 0 0 0 0.15 0"/> <feBlend mode="normal" in2="BackgroundImageFix" result="effect1_dropShadow"/> <feBlend mode="normal" in="SourceGraphic" in2="effect1_dropShadow" result="shape"/> </filter> </defs> </svg>

<svg xmlns="http://www.w3.org/2000/svg" width="48" height="54" fill="none"><g filter="url(#filter0_d)" fill="#FFD600"><path d="M27.5 8.579h-7a1.73 1.73 0 01-1.237-.524 1.81 1.81 0 01-.513-1.266c0-.474.184-.93.513-1.265A1.73 1.73 0 0120.5 5h7c.464 0 .91.189 1.237.524.329.336.513.79.513 1.265 0 .475-.184.93-.513 1.266a1.73 1.73 0 01-1.237.524zM24 10.368c-2.769 0-5.476.84-7.778 2.413a14.251 14.251 0 00-5.156 6.425 14.616 14.616 0 00-.797 8.271 14.419 14.419 0 003.832 7.33 13.907 13.907 0 007.168 3.918c2.716.552 5.53.269 8.089-.815a14.074 14.074 0 006.283-5.272A14.547 14.547 0 0038 24.684c0-3.797-1.475-7.438-4.1-10.123-2.626-2.684-6.187-4.193-9.9-4.193zm1.75 14.316c0 .475-.184.93-.513 1.266a1.73 1.73 0 01-1.237.524 1.73 1.73 0 01-1.237-.524 1.81 1.81 0 01-.513-1.266v-5.368c0-.475.184-.93.513-1.266A1.73 1.73 0 0124 17.526c.464 0 .91.189 1.237.524.329.336.513.791.513 1.266v5.368z"/></g><defs><filter id="filter0_d" x="0" y="0" width="48" height="54" filterUnits="userSpaceOnUse" color-interpolation-filters="sRGB"><feFlood flood-opacity="0" result="BackgroundImageFix"/><feColorMatrix in="SourceAlpha" values="0 0 0 0 0 0 0 0 0 0 0 0 0 0 0 0 0 0 127 0"/><feOffset dy="5"/><feGaussianBlur stdDeviation="5"/><feColorMatrix values="0 0 0 0 1 0 0 0 0 0.839216 0 0 0 0 0 0 0 0 0.15 0"/><feBlend in2="BackgroundImageFix" result="effect1_dropShadow"/><feBlend in="SourceGraphic" in2="effect1_dropShadow" result="shape"/></filter></defs></svg>
